icons/lines/scroll.svg

<svg xmlns="http://www.w3.org/2000/svg" width="24" height="24" viewBox="0 0 24 24" fill="none" stroke="currentColor" stroke-width="2" stroke-linecap="round" stroke-linejoin="round" >
  <path d="M9 22H15C20 22 22 20 22 15V9C22 4 20 2 15 2H9C4 2 2 4 2 9V15C2 20 4 22 9 22Z"/>
  <path d="M9.60008 8.97L7.11008 11.46C6.82008 11.75 6.82008 12.24 7.11008 12.53L9.60008 15.02" stroke-miterlimit="10"/>
  <path d="M14.3999 8.97L16.8899 11.46C17.1799 11.75 17.1799 12.24 16.8899 12.53L14.3999 15.02" stroke-miterlimit="10"/>
  </svg>

<svg xmlns="http://www.w3.org/2000/svg" width="24" height="24" viewBox="0 0 24 24" fill="none" stroke="currentColor" stroke-width="2" stroke-linecap="round" stroke-linejoin="round">
  <path d="m14.4 8.97 2.49 2.49a.767.767 0 0 1 0 1.07l-2.49 2.49" />
  <path d="M15 22c5 0 7-2 7-7V9c0-5-2-7-7-7H9C4 2 2 4 2 9v6c0 5 2 7 7 7z" />
  <path d="m9.6 8.97-2.49 2.49a.767.767 0 0 0 0 1.07l2.49 2.49" />
</svg>
